svgs/goaly.svg

<svg xmlns="http://www.w3.org/2000/svg" viewBox="0 0 192 192"><path d="M89.316 168.709c-3.463-1.235-7.632-5.065-9.011-8.279-.559-1.302-1.016-4.047-1.016-6.1 0-8.243 6.472-14.713 14.718-14.713 16.751 0 20.405 23.477 4.536 29.145-3.439 1.229-5.667 1.216-9.227-.053Zm33.583-3.073c1.378-2.987 1.648-4.842 1.642-11.3-.006-6.826-.236-8.219-1.972-11.936-2.173-4.651-7.591-10.883-11.762-13.526-13.622-8.635-32.138-4.688-41.121 8.765-5.215 7.81-6.533 17.162-3.7 26.263l1.415 4.547-1.967-.491c-1.082-.27-4.703-1.665-8.048-3.1-4.822-2.07-6.175-2.99-6.541-4.45-.824-3.28.334-15.116 1.953-19.967 4.71-14.108 17.5-25.605 32.389-29.114 21.88-5.157 44.388 8.056 51.952 30.498 1 2.968 1.368 6.239 1.378 12.264.007 4.519-.191 8.422-.441 8.672-.637.639-12.37 5.356-14.809 5.954l-2.017.495Zm-93.328-20.315C21.143 136.679 16 129.941 16 127.545c0-1.208 11.308-12.988 15.676-16.331l2.798-2.141-1.22-4.414c-1.63-5.9-2.21-19.486-1.102-25.847.483-2.77 1.738-7.586 2.79-10.703l1.913-5.666-2.682-5.867c-5.745-12.567-5.295-20.043 1.658-27.587 7.855-8.522 20.473-8.909 29.339-.899l2.996 2.707 6.481-2.201c7.615-2.586 18.512-4.049 25.248-3.39 6.105.597 16.327 2.94 19.115 4.382 2.974 1.538 4.366 1.398 5.937-.599.741-.942 3.438-2.829 5.993-4.194 3.926-2.097 5.389-2.48 9.43-2.467 5.994.02 11.216 2.498 15.004 7.121 6.711 8.19 6.98 16.256.942 28.233l-2.493 4.945 2.054 5.931c2.123 6.133 3.627 14.829 3.627 20.974 0 3.284-1.719 14.773-2.552 17.061-.216.594.787 1.828 2.431 2.988 4.676 3.301 10.008 8.388 13.4 12.784l3.217 4.17-1.746 3.046c-.96 1.675-2.755 4.37-3.987 5.989-2.789 3.663-15.315 16.558-16.084 16.558-.312 0-.566-.951-.566-2.114 0-3.965-3.605-16.333-6.304-21.629-7.746-15.199-21.186-26.004-37.9-30.469-6.492-1.735-21.376-1.735-27.868 0-20.008 5.345-36.197 20.738-41.737 39.687-.975 3.334-1.976 7.966-2.224 10.293-.249 2.328-.66 4.232-.914 4.232s-3.448-3.063-7.099-6.807Zm42.573-66.05c9.448-1.595 12.094-2.621 14.439-5.603 3.444-4.379.81-13.831-5.316-19.075-5.674-4.857-14.517-5.939-21.035-2.573-3.563 1.84-7.834 6.375-9.286 9.86-1.664 3.993-1.565 11.666.188 14.668 2.702 4.626 6.683 5.142 21.01 2.723Zm-10.959-2.77c-1.644-1.097-2.502-3.868-2.502-8.075 0-3.918.222-4.53 2.392-6.583 1.315-1.245 3.115-2.635 3.999-3.088 2.203-1.13 6.216-1.067 6.065.095-.606 4.669 4.32 8.141 8.13 5.731 1.492-.943 2.203.385 2.216 4.139.015 3.87-2.682 6.381-8.098 7.543-4.254.912-10.995 1.044-12.202.238Zm78.386 3.171c2.856-1.476 4.479-5.276 4.479-10.486 0-11.292-10.43-20.5-21.549-19.025-9.484 1.258-16.809 9.086-16.945 18.107-.1 6.646 3.114 8.916 15.609 11.023 9.772 1.648 15.719 1.771 18.406.381Zm-20.035-3.415c-4.239-.998-5.68-2.008-6.847-4.799-1.407-3.369-.23-7.426 3.089-10.644 1.924-1.864 3.231-2.433 6.266-2.724 3.708-.356 3.819-.313 3.392 1.32-.608 2.327 1.329 5.762 3.568 6.323 1.019.256 2.881.26 4.137.009l2.284-.457-.424 4.107c-.233 2.259-.949 4.909-1.592 5.889-1.054 1.609-1.651 1.776-6.118 1.709-2.723-.04-6.213-.37-7.755-.733Z"/></svg>

<svg
    xmlns="http://www.w3.org/2000/svg"
    viewBox="0 0 192 192"
    id="vector">
    <g id="group">
        <path
            id="path_6"
            d="M 89.316 168.709 C 85.853 167.474 81.684 163.644 80.305 160.43 C 79.746 159.128 79.289 156.383 79.289 154.33 C 79.289 146.087 85.761 139.617 94.007 139.617 C 110.758 139.617 114.412 163.094 98.543 168.762 C 95.104 169.991 92.876 169.978 89.316 168.709 Z M 122.899 165.636 C 124.277 162.649 124.547 160.794 124.541 154.336 C 124.535 147.51 124.305 146.117 122.569 142.4 C 120.396 137.749 114.978 131.517 110.807 128.874 C 97.185 120.239 78.669 124.186 69.686 137.639 C 64.471 145.449 63.153 154.801 65.986 163.902 L 67.401 168.449 L 65.434 167.958 C 64.352 167.688 60.731 166.293 57.386 164.858 C 52.564 162.788 51.211 161.868 50.845 160.408 C 50.021 157.128 51.179 145.292 52.798 140.441 C 57.508 126.333 70.298 114.836 85.187 111.327 C 107.067 106.17 129.575 119.383 137.139 141.825 C 138.139 144.793 138.507 148.064 138.517 154.089 C 138.524 158.608 138.326 162.511 138.076 162.761 C 137.439 163.4 125.706 168.117 123.267 168.715 L 121.25 169.21 Z M 29.571 145.321 C 21.143 136.679 16 129.941 16 127.545 C 16 126.337 27.308 114.557 31.676 111.214 L 34.474 109.073 L 33.254 104.659 C 31.624 98.759 31.044 85.173 32.152 78.812 C 32.635 76.042 33.89 71.226 34.942 68.109 L 36.855 62.443 L 34.173 56.576 C 28.428 44.009 28.878 36.533 35.831 28.989 C 43.686 20.467 56.304 20.08 65.17 28.09 L 68.166 30.797 L 74.647 28.596 C 82.262 26.01 93.159 24.547 99.895 25.206 C 106 25.803 116.222 28.146 119.01 29.588 C 121.984 31.126 123.376 30.986 124.947 28.989 C 125.688 28.047 128.385 26.16 130.94 24.795 C 134.866 22.698 136.329 22.315 140.37 22.328 C 146.364 22.348 151.586 24.826 155.374 29.449 C 162.085 37.639 162.354 45.705 156.316 57.682 L 153.823 62.627 L 155.877 68.558 C 158 74.691 159.504 83.387 159.504 89.532 C 159.504 92.816 157.785 104.305 156.952 106.593 C 156.736 107.187 157.739 108.421 159.383 109.581 C 164.059 112.882 169.391 117.969 172.783 122.365 L 176 126.535 L 174.254 129.581 C 173.294 131.256 171.499 133.951 170.267 135.57 C 167.478 139.233 154.952 152.128 154.183 152.128 C 153.871 152.128 153.617 151.177 153.617 150.014 C 153.617 146.049 150.012 133.681 147.313 128.385 C 139.567 113.186 126.127 102.381 109.413 97.916 C 102.921 96.181 88.037 96.181 81.545 97.916 C 61.537 103.261 45.348 118.654 39.808 137.603 C 38.833 140.937 37.832 145.569 37.584 147.896 C 37.335 150.224 36.924 152.128 36.67 152.128 C 36.416 152.128 33.222 149.065 29.571 145.321 Z M 72.144 79.271 C 81.592 77.676 84.238 76.65 86.583 73.668 C 90.027 69.289 87.393 59.837 81.267 54.593 C 75.593 49.736 66.75 48.654 60.232 52.02 C 56.669 53.86 52.398 58.395 50.946 61.88 C 49.282 65.873 49.381 73.546 51.134 76.548 C 53.836 81.174 57.817 81.69 72.144 79.271 Z M 61.185 76.501 C 59.541 75.404 58.683 72.633 58.683 68.426 C 58.683 64.508 58.905 63.896 61.075 61.843 C 62.39 60.598 64.19 59.208 65.074 58.755 C 67.277 57.625 71.29 57.688 71.139 58.85 C 70.533 63.519 75.459 66.991 79.269 64.581 C 80.761 63.638 81.472 64.966 81.485 68.72 C 81.5 72.59 78.803 75.101 73.387 76.263 C 69.133 77.175 62.392 77.307 61.185 76.501 Z M 139.571 79.672 C 142.427 78.196 144.05 74.396 144.05 69.186 C 144.05 57.894 133.62 48.686 122.501 50.161 C 113.017 51.419 105.692 59.247 105.556 68.268 C 105.456 74.914 108.67 77.184 121.165 79.291 C 130.937 80.939 136.884 81.062 139.571 79.672 Z M 119.536 76.257 C 115.297 75.259 113.856 74.249 112.689 71.458 C 111.282 68.089 112.459 64.032 115.778 60.814 C 117.702 58.95 119.009 58.381 122.044 58.09 C 125.752 57.734 125.863 57.777 125.436 59.41 C 124.828 61.737 126.765 65.172 129.004 65.733 C 130.023 65.989 131.885 65.993 133.141 65.742 L 135.425 65.285 L 135.001 69.392 C 134.768 71.651 134.052 74.301 133.409 75.281 C 132.355 76.89 131.758 77.057 127.291 76.99 C 124.568 76.95 121.078 76.62 119.536 76.257 Z"
            fill="#000000"
            stroke-width="12"/>
    </g>
</svg>
